!!!COM: Balsamino, Simone
!!!CDT:
!!!PTL: Novellette a sei voci
!!!PPP: Venice
!!!PPR: Amadino
!!!PDT: 1594
!!!PUB-format:
!!!RISM: B 785
!!!OTL: Nove, Aminta, t'annuncio di conforto
!!!AGN: Madrigal
!!!SCT: Tam2031045a
!!!SCA: Tam2031045a
!!!original-voices: 6
!!!extant-voices: 6
!!!complete: Y
!!!final: (C)F
**kern	**text	**kern	**text	**kern	**text	**kern	**text	**kern	**text	**kern	**text
*part6	*part6	*part5	*part5	*part4	*part4	*part3	*part3	*part2	*part2	*part1	*part1
*staff6	*staff6	*staff5	*staff5	*staff4	*staff4	*staff3	*staff3	*staff2	*staff2	*staff1	*staff1
*I"Basso	*	*I"Quinto	*	*I"Tenore	*	*I"Alto	*	*I"Sesto	*	*I"Canto	*
*I'B	*	*I'V	*	*I'T	*	*I'A	*	*I'VI	*	*I'C	*
*oclefF4	*	*oclefC4	*	*oclefC4	*	*oclefC3	*	*oclefC1	*	*oclefC1	*
*clefF4	*	*clefGv2	*	*clefGv2	*	*clefG2	*	*clefG2	*	*clefG2	*
*k[b-]	*	*k[b-]	*	*k[b-]	*	*k[b-]	*	*k[b-]	*	*k[b-]	*
*omet(C)	*	*omet(C)	*	*omet(C)	*	*omet(C)	*	*omet(C)	*	*omet(C)	*
*M4/2	*	*M4/2	*	*M4/2	*	*M4/2	*	*M4/2	*	*M4/2	*
=1	=1	=1	=1	=1	=1	=1	=1	=1	=1	=1	=1
!!LO:TX:a:t=[Seconda parte]
0r	.	1r	.	0r	.	1r	.	4.cc	No-	0r	.
.	.	.	.	.	.	.	.	8b-y	-ve,	.	.
.	.	.	.	.	.	.	.	4cc	No-	.	.
.	.	.	.	.	.	.	.	4a	-ve, A-	.	.
.	.	4.c	No-	.	.	4.e	No-	2g	-min-	.	.
.	.	8B-y	-ve,	.	.	8d	-ve,	.	.	.	.
.	.	4c	No-	.	.	4e	No-	4g	-ta,	.	.
.	.	4A	-ve, A-	.	.	4c	-ve, A-	4a	t'an-	.	.
=2	=2	=2	=2	=2	=2	=2	=2	=2	=2	=2	=2
0r	.	2G	-min-	0r	.	2d	-min-	4.b-y	-nun-	0r	.
.	.	.	.	.	.	.	.	8b-y	-cio	.	.
.	.	4G	-ta,	.	.	4d	-ta,	4b-y	di	.	.
.	.	4A	t'an-	.	.	4c	t'an-	4a	con-	.	.
.	.	4c	-nun-	.	.	4e	-nun-	2g	-for-	.	.
.	.	4G	-cio	.	.	4d	-cio	.	.	.	.
.	.	4.B-y	di	.	.	4.d	di	2f	-to:	.	.
.	.	8A	con-	.	.	8c	con-	.	.	.	.
=3	=3	=3	=3	=3	=3	=3	=3	=3	=3	=3	=3
0r	.	4.G	-for-	0r	.	4d	-for-	4.g	La-	0r	.
.	.	.	.	.	.	4d	-to:	.	.	.	.
.	.	8G	-to:	.	.	.	.	8g	-scia o-	.	.
.	.	4.d	La-	.	.	4.f	La-	2.a	-mai	.	.
.	.	8d	-scia o-	.	.	8f	-scia o-	.	.	.	.
.	.	2.d	-mai	.	.	2.f	-mai	.	.	.	.
.	.	.	.	.	.	.	.	8f	que-	.	.
.	.	.	.	.	.	.	.	8g	-sto	.	.
.	.	.	.	.	.	.	.	4a	tan-	.	.
.	.	8A	que-	.	.	8c	que-	4a	-to	.	.
.	.	8B-y	-sto	.	.	8d	-sto	.	.	.	.
=4	=4	=4	=4	=4	=4	=4	=4	=4	=4	=4	=4
0r	.	4.c	tan-	0r	.	4e	tan-	2.g	la-	0r	.
.	.	.	.	.	.	4e	-to	.	.	.	.
.	.	8c	-to	.	.	.	.	.	.	.	.
.	.	4A	la-	.	.	4c	la-	.	.	.	.
.	.	4A	-men-	.	.	4c	-men-	4f	-men-	.	.
.	.	1A	-tar-	.	.	1c	-tar-	1e	-tar-	.	.
=5	=5	=5	=5	=5	=5	=5	=5	=5	=5	=5	=5
1r	.	1A	-ti.	1r	.	1c	-ti.	1e	-ti.	1cc	Ohi-
[1F	Ohi-	1r	.	[1c	Ohi-	1r	.	1r	.	4.a	-mè,
.	.	.	.	.	.	.	.	.	.	8cc	che
.	.	.	.	.	.	.	.	.	.	4.a	di'?
.	.	.	.	.	.	.	.	.	.	8cc	che
=6	=6	=6	=6	=6	=6	=6	=6	=6	=6	=6	=6
2F]	.	0r	.	2c]	.	0r	.	0r	.	4.a	di'?
.	.	.	.	.	.	.	.	.	.	8cc	che
4.D	-mè,	.	.	4F	-mè,	.	.	.	.	1f	por-
.	.	.	.	4A	che	.	.	.	.	.	.
8F	che	.	.	.	.	.	.	.	.	.	.
4.D	di'?	.	.	4.A	di'?	.	.	.	.	.	.
8F	che	.	.	8A	che	.	.	.	.	.	.
4.D	di'?	.	.	4A	di'?	.	.	.	.	2f	-ti?
.	.	.	.	4F	che	.	.	.	.	.	.
8F	che	.	.	.	.	.	.	.	.	.	.
=7	=7	=7	=7	=7	=7	=7	=7	=7	=7	=7	=7
1BB-y	por-	0r	.	1F	por-	0r	.	0r	.	4.b-y	O
.	.	.	.	.	.	.	.	.	.	8cc	la
.	.	.	.	.	.	.	.	.	.	2.dd	vi-
2BB-y	-ti?	.	.	2F	-ti?	.	.	.	.	.	.
.	.	.	.	.	.	.	.	.	.	8cc	-ta o
.	.	.	.	.	.	.	.	.	.	8b-y	la
4.F	O	.	.	4.A	O	.	.	.	.	2cc	mor-
8G	la	.	.	8G	la	.	.	.	.	.	.
=8	=8	=8	=8	=8	=8	=8	=8	=8	=8	=8	=8
2.A	vi-	0r	.	2F	vi-	0r	.	0r	.	2cc	-te?
.	.	.	.	4c	-ta o	.	.	.	.	4cc	o
8G	-ta o	.	.	4BnXi	la	.	.	.	.	4dd	la
8F	la	.	.	.	.	.	.	.	.	.	.
2G	mor-	.	.	2d	mor-	.	.	.	.	2bnX	mor-
2C	-te?	.	.	2c	-te?	.	.	.	.	2cc	-te?
=9	=9	=9	=9	=9	=9	=9	=9	=9	=9	=9	=9
0r	.	2c	Por-	0r	.	2e	Por-	2g	Por-	0r	.
.	.	4c	-to	.	.	4e	-to	4g	-to	.	.
.	.	4c	sa-	.	.	4e	sa-	4g	sa-	.	.
.	.	4c	-lu-	.	.	4e	-lu-	4g	-lu-	.	.
.	.	4c	-te e	.	.	4e	-te e	4g	-te e	.	.
.	.	[2c	vi-	.	.	[2e	vi-	[2g	vi-	.	.
=10	=10	=10	=10	=10	=10	=10	=10	=10	=10	=10	=10
0r	.	4c]	.	0r	.	4e]	.	4g]	.	0r	.
.	.	4c	-ta,	.	.	4e	-ta,	4g	-ta,	.	.
.	.	4.G	s'ar-	.	.	4d	s'ar-	4.b-y	s'ar-	.	.
.	.	.	.	.	.	4g	-di-	.	.	.	.
.	.	8A	-di-	.	.	.	.	8cc	-di-	.	.
.	.	2B-y	-ra-	.	.	2f	-ra-	2dd	-ra-	.	.
.	.	4c	-i	.	.	4e	-i	4g	-i	.	.
.	.	4c	Di	.	.	4e	Di	4g	Di	.	.
=11	=11	=11	=11	=11	=11	=11	=11	=11	=11	=11	=11
0r	.	2.c	far-	0r	.	2.e	far-	2.g	far-	0r	.
.	.	4c	-ti	.	.	4e	-ti	4g	-ti	.	.
.	.	4F	lo-	.	.	4f	lo-	4a	lo-	.	.
.	.	4G	-ro in-	.	.	4d	-ro in-	4g	-ro in-	.	.
.	.	2A	-con-	.	.	2c#X	-con-	2e	-con-	.	.
=12	=12	=12	=12	=12	=12	=12	=12	=12	=12	=12	=12
2r	.	2D	-tra,	2r	.	2d	-tra,	2d	-tra,	2r	.
2F	Por-	2r	.	2c	Por-	2f	Por-	2a	Por-	2cc	Por-
4F	-to	1r	.	4c	-to	4f	-to	4a	-to	4cc	-to
4F	sa-	.	.	4c	sa-	4f	sa-	4a	sa-	4cc	sa-
4F	-lu-	.	.	[4c	-lu-	4f	-lu-	4a	-lu-	4cc	-lu-
4F	-te e	.	.	4c]	-te e	4f	-te e	4a	-te e	4cc	-te e
=13	=13	=13	=13	=13	=13	=13	=13	=13	=13	=13	=13
2.F	vi-	2c	Por-	2A	vi-	2.f	vi-	2.a	vi-	2.cc	vi-
.	.	4c	-to	2A	-ta,	.	.	.	.	.	.
4F	-ta,	4c	sa-	.	.	4f	-ta,	4a	-ta,	4cc	-ta,
4.C	s'ar-	4c	-lu-	1r	.	4.e	s'ar-	2.g	s'ar-	4cc	s'ar-
.	.	4c	-te e	.	.	.	.	.	.	4cc	-di-
8D	-di-	.	.	.	.	8f	-di-	.	.	.	.
2E-X	-ra-	4.G	vi-	.	.	2g	-ra-	.	.	2b-y	-ra-
.	.	.	.	.	.	.	.	4g	-di-	.	.
.	.	8G	-ta	.	.	.	.	.	.	.	.
=14	=14	=14	=14	=14	=14	=14	=14	=14	=14	=14	=14
4F	-i	4.c	s'ar-	0r	.	4f	-i	2a	-ra-	4a	-i
4F	Di	.	.	.	.	4f	Di	.	.	4cc	Di
.	.	8c	-di-	.	.	.	.	.	.	.	.
2.F	far-	2c	-ra-	.	.	2.f	far-	4a	-i	2.cc	far-
.	.	.	.	.	.	.	.	4a	Di	.	.
.	.	4c	-i	.	.	.	.	4a	far-	.	.
4F	-ti	4F	Di	.	.	4f	-ti	4a	-ti	4cc	-ti
4BB-y	lo-	4F	far-	.	.	4d	lo-	4b-y	lo-	4dd	lo-
4C	-ro in-	4E	-ti	.	.	4e	-ro in-	4g	-ro in-	8ccL	.
.	.	.	.	.	.	.	.	.	.	8b-yJ	.
=15	=15	=15	=15	=15	=15	=15	=15	=15	=15	=15	=15
1D	-con-	4F	lo-	1r	.	2d	-con-	8fL	-con-	4a	.
.	.	.	.	.	.	.	.	8e	.	.	.
.	.	4G	-ro in-	.	.	.	.	8d	.	4b-y	-ro in-
.	.	.	.	.	.	.	.	8cJ	.	.	.
.	.	2F#X	-con-	.	.	2A	-tra,	2d	.	2a	-con-
2GG	-tra,	1G	-tra,	4.G	s'ar-	4.B-y	s'ar-	2d	-tra,	2g	-tra,
.	.	.	.	8A	-di-	8c	-di-	.	.	.	.
4.GG	s'ar-	.	.	4B-y	-ra-	4d	-ra-	2r	.	4.b-y	s'ar-
.	.	.	.	4B-y	-i,	4d	-i,	.	.	.	.
8AA	-di-	.	.	.	.	.	.	.	.	8cc	-di-
=16	=16	=16	=16	=16	=16	=16	=16	=16	=16	=16	=16
4BB-y	-ra-	4.F	s'ar-	4.B-y	s'ar-	4.d	s'ar-	0r	.	4dd	-ra-
4BB-y	-i,	.	.	.	.	.	.	.	.	4dd	-i,
.	.	8G	-di-	8c	-di-	8e	-di-	.	.	.	.
4.BB-y	s'ar-	4B-y	-ra-	4d	-ra-	4f	-ra-	.	.	4.d	s'ar-
.	.	4B-y	-i,	4d	-i,	4f	-i,	.	.	.	.
8C	-di-	.	.	.	.	.	.	.	.	8e	-di-
4D	-ra-	4.A	s'ar-	4.d	s'ar-	4.f	s'ar-	.	.	4f	-ra-
4D	-i,	.	.	.	.	.	.	.	.	4f	-i,
.	.	8B-y	-di-	8e	-di-	8g	-di-	.	.	.	.
4.D	s'ar-	4d	-ra-	4f	-ra-	2a	-ra-	.	.	4.f	s'ar-
.	.	4d	-i,	4f	-i	.	.	.	.	.	.
8E	-di-	.	.	.	.	.	.	.	.	8g	-di-
=17	=17	=17	=17	=17	=17	=17	=17	=17	=17	=17	=17
4F	-ra-	4c	s'ar-	1r	.	2.f	-i	0r	.	4a	-ra-
4F	-i,	4c	-di-	.	.	.	.	.	.	4a	-i,
4.F	s'ar-	1c	-ra-	.	.	.	.	.	.	4.a	s'ar-
.	.	.	.	.	.	4f	Di	.	.	.	.
8G	-di-	.	.	.	.	.	.	.	.	8b-y	-di-
2A	-ra-	.	.	2r	.	2e	far-	.	.	2cc	-ra-
4A	-i	2c	-i	4r	.	4e	-ti,	.	.	4cc	-i
4F	Di	.	.	4c	Di	4f	Di	.	.	4cc	Di
=18	=18	=18	=18	=18	=18	=18	=18	=18	=18	=18	=18
2.F	far-	1A	Di	2.c	far-	1f	far-	0r	.	2.cc	far-
4F	-ti	.	.	4c	-ti	.	.	.	.	4cc	-ti
2.BB-y	lo-	2.F	far-	2.B-y	lo-	2f	-ti	.	.	2.dd	lo-
.	.	.	.	.	.	4d	lo-	.	.	.	.
4C	-ro in-	4E	-ti	4A	-ro in-	4g	-ro in-	.	.	8ccL	.
.	.	.	.	.	.	.	.	.	.	8b-yJ	.
=19	=19	=19	=19	=19	=19	=19	=19	=19	=19	=19	=19
0D	-con-	2.F#X	lo-	2.A	-con-	0d	-con-	0r	.	2a	.
.	.	.	.	.	.	.	.	.	.	2b-y	-ro in-
.	.	4G	-ro in-	4G	.	.	.	.	.	.	.
.	.	1A	-con-	1F#X	.	.	.	.	.	1a	-con-
=20	=20	=20	=20	=20	=20	=20	=20	=20	=20	=20	=20
2GG	-tra;	2B-y	-tra;	2G	-tra;	2d	-tra;	1r	.	2g	-tra;
2E-X	ma,	2B-y	ma,	2G	ma,	2e-X	ma,	.	.	2b-y	ma,
4BB-y	ma	4B-y	ma	4d	ma	4d	ma	4dd	ma	4b-y	ma
4E-X	fa	4B-y	fa	4G	fa	4B-y	fa	4b-y	fa	4g	fa
2D	d'uo-	2F	d'uo-	2d	d'uo-	2f	d'uo-	2dd	d'uo-	2a	d'uo-
=21	=21	=21	=21	=21	=21	=21	=21	=21	=21	=21	=21
2D	-po	2F	-po	2d	-po	2f	-po	2dd	-po	2a	-po
4BB-y	D'es-	4F	D'es-	4d	D'es-	4f	D'es-	4dd	D'es-	4b-y	D'es-
8BB-y	-ser	8F	-ser	8d	-ser	8f	-ser	8dd	-ser	8b-y	-ser
8BB-y	un	8F	un	8d	un	8f	un	8dd	un	8b-y	un
2.F	uom,	2.F	uom,	2.A	uom,	2.f	uom,	2.cc	uom,	2.a	uom,
4C	A-	4G	A-	4c	A-	4e	A-	4cc	A-	4g	A-
=22	=22	=22	=22	=22	=22	=22	=22	=22	=22	=22	=22
2F	-min-	2F	-min-	2c	-min-	2f	-min-	2cc	-min-	2a	-min-
2F	-ta,	4A	-ta,	2c	-ta,	2f	-ta,	4cc	-ta,	2a	-ta,
.	.	4A	un	.	.	.	.	4a	un	.	.
2BB-y	un	4B-y	uom	2d	un	1r	.	4.f	uom	1r	.
.	.	4B-y	ar-	.	.	.	.	.	.	.	.
.	.	.	.	.	.	.	.	8g	ar-	.	.
4.AA	uom	2c	-di-	4c	uom	.	.	2a	-di-	.	.
.	.	.	.	4d	ar-	.	.	.	.	.	.
8BB-y	ar-	.	.	.	.	.	.	.	.	.	.
=23	=23	=23	=23	=23	=23	=23	=23	=23	=23	=23	=23
2C	-di-	1G	-to,	2e-X	-di-	0r	.	4g	-to,	2r	.
.	.	.	.	.	.	.	.	4cc	un	.	.
2GG	-to,	.	.	4d	-to,	.	.	4b-y	uom	2g	un
.	.	.	.	4d	un	.	.	4cc	ar-	.	.
1r	.	2B-y	un	4d	uom	.	.	2dd	-di-	4f	uom
.	.	.	.	4e-i	ar-	.	.	.	.	4g	ar-
.	.	4A	uom	2f	-di-	.	.	2cc	-to,	2a	-di-
.	.	4B-y	ar-	.	.	.	.	.	.	.	.
=24	=24	=24	=24	=24	=24	=24	=24	=24	=24	=24	=24
2C	un	2c	-di-	4ei	-to,	0r	.	1r	.	2g	-to,
.	.	.	.	4e	un	.	.	.	.	.	.
4BB-y	uom	2F	-to,	4d	uom	.	.	.	.	2b-y	un
4C	ar-	.	.	4e	ar-	.	.	.	.	.	.
2D	-di-	2r	.	2f	-di-	.	.	2r	.	4a	uom
.	.	.	.	.	.	.	.	.	.	4b-y	ar-
2C	-to,	2G	un	2e	-to,	.	.	4r	.	2cc	-di-
.	.	.	.	.	.	.	.	4cc	un	.	.
=25	=25	=25	=25	=25	=25	=25	=25	=25	=25	=25	=25
1r	.	4F	uom	2f	un	1r	.	4a	uom	2.c	-to,
.	.	4G	ar-	.	.	.	.	4b-y	ar-	.	.
.	.	2A	-di-	4e	uom	.	.	2cc	-di-	.	.
.	.	.	.	4c	ar-	.	.	.	.	4cc	un
2D	un	2F	-to,	2d	-di-	2f	un	2f	-to,	4a	uom
.	.	.	.	.	.	.	.	.	.	4b-y	ar-
4.C	uom	2G	<un	[2G	-to,	4e	uom	4r	.	2cc	-di-
.	.	.	.	.	.	4f	ar-	4cc	<un	.	.
8D	ar-	.	.	.	.	.	.	.	.	.	.
=26	=26	=26	=26	=26	=26	=26	=26	=26	=26	=26	=26
2E-X	-di-	4G	uom	2G]	.	2g	-di-	4b-y	uom	2g	-to,
.	.	4G	ar-	.	.	.	.	4cc	ar-	.	.
2D	-to,	2d	-di-	2A	un	2f#X	.	2dd	-di-	4r	.
.	.	.	.	.	.	.	.	.	.	4dd	<un
1r	.	2d	-to,>	4G	uom	2g	-to,	2g	-to,>	4b-y	uom
.	.	.	.	4A	ar-	.	.	.	.	4cc	ar-
.	.	2r	.	2B-y	-di-	4d	un	2f	un	2dd	-di-
.	.	.	.	.	.	4e	uom	.	.	.	.
=27	=27	=27	=27	=27	=27	=27	=27	=27	=27	=27	=27
2F	<un	2r	.	2A	-to,	2f	ar-	4a	uom	2cc	-to,>
.	.	.	.	.	.	.	.	4b-y	ar-	.	.
4E	uom	2e	ar-	2G	ar-	2.g	-di-	1cc	-di-	2r	.
4F	ar-	.	.	.	.	.	.	.	.	.	.
1G	-di-	1d	-di-	1G	-di-	.	.	.	.	1r	.
.	.	.	.	.	.	4g	-to, ar-	.	.	.	.
.	.	.	.	.	.	2g	-di-	2bnX	.	.	.
=28	=28	=28	=28	=28	=28	=28	=28	=28	=28	=28	=28
2C	-to,>	2c	-to,	2G	-to,	2e	-to,	2cc	-to,	2r	.
4GG	ma	4B-y	ma	4G	ma	4d	ma	4dd	ma	4b-y	ma
4C	fa	4c	fa	4G	fa	4e	fa	4cc	fa	4g	fa
2BB-y	d'uo-	2F	d'uo-	2D	d'uo-	2f	d'uo-	2dd	d'uo-	2b-y	d'uo-
2BB-y	-po	2F	-po	2B-y	-po	2f	-po	2dd	-po	2b-y	-po
=29	=29	=29	=29	=29	=29	=29	=29	=29	=29	=29	=29
4BB-y	D'es-	4F	D'es-	4B-y	D'es-	4f	D'es-	4dd	D'es-	4b-y	D'es-
8BB-y	-ser	8F	-ser	8B-y	-ser	8f	-ser	8dd	-ser	8b-y	-ser
8BB-y	un	8F	un	8B-y	un	8f	un	8dd	un	8b-y	un
4F	uom,	4F	uom,	4c	uom,	4f	uom,	4cc	uom,	4a	uom,
4D-y	A-	4A	A-	4F	A-	4f	A-	4dd	A-	4a	A-
1F	-min-	1A	-min-	1c	-min-	1f	-min-	1cc	-min-	2a	-min-
.	.	.	.	.	.	.	.	.	.	2a	-ta,
=30	=30	=30	=30	=30	=30	=30	=30	=30	=30	=30	=30
2F	-ta,	2A	-ta,	2c	-ta,	2f	-ta,	4cc	-ta,	2a	un
.	.	.	.	.	.	.	.	4cc	un	.	.
2F	un	2F	un	2c	un	2f	un	4cc	uom	4a	uom
.	.	.	.	.	.	.	.	4cc	ar-	4a	ar-
2.BB-y	uom	2.B-y	uom	2.d	uom	2.f	uom	8b-yL	-di-	8b-yL	-di-
.	.	.	.	.	.	.	.	8cc	.	8a	.
.	.	.	.	.	.	.	.	8dd	.	8b-y	.
.	.	.	.	.	.	.	.	8eeJ	.	8ccJ	.
.	.	.	.	.	.	.	.	[2ff	.	4.dd	.
4F	ar-	4c	ar-	4f	ar-	4a	ar-	.	.	.	.
.	.	.	.	.	.	.	.	.	.	8cc	.
=31	=31	=31	=31	=31	=31	=31	=31	=31	=31	=31	=31
1G	-di-	1G	-di-	1d	-di-	1g	-di-	4ff]	.	4bnX	.
.	.	.	.	.	.	.	.	4ee	.	2cc	.
.	.	.	.	.	.	.	.	2dd	.	.	.
.	.	.	.	.	.	.	.	.	.	4bni	.
=32	=32	=32	=32	=32	=32	=32	=32	=32	=32	=32	=32
0Cl	-to.	0Gl	-to.	0el	-to.	0gl	-to.	0ccl	-to.	0ccl	-to.
==	==	==	==	==	==	==	==	==	==	==	==
*-	*-	*-	*-	*-	*-	*-	*-	*-	*-	*-	*-
!!!system-decoration: [*]
!!!RDF**kern: i = editorial accidental
!!!RDF**kern: l = terminal long
!!!ENC: Emiliano Ricciardi
!!!END: 2018
!!!EED: Coluzzi, Seth
!!!EEV: 2018/10/28
!!!YEC: Copyright 2018 Emiliano Ricciardi, All Rights Reserved
!!!ONB: Translated from MusicXML on 2018/10/28
!!@@BEGIN:	VERSEDATA
!!@CATALOGNUM:	Tam2031045
!!@LAST_MODIFIED: 2020/07/12
!!@ACT:      II
!!@SCENE:    3
!!@VERSE:    1045
!!@TITLE:    Nove, Aminta, t'annuncio di conforto
!!@MANUSRC:	A-Am, A-Au, A-Br, A-CM, A-F, A-Ub
!!@PRINTSRC:	A-1580D, A-1580M, A-1581B, A-1581B<sub>bis</sub>, A-1581M, A-1581M<sub>bis</sub>, A-1581O, A-1581V, A-1582B, A-1583M, A-1583V, A-1584A, A-1585C, A-1585V, A-1585V<sub>bis</sub>, A-1588B, A-1589M, A-1589V, A-1590Mb, A-1590Mv, A-1591M, A-1591W, A-1592B, A-1596B, A-1596M, A-1599Bf, A-1599Bp, A-1600R, A-1601Bf, A-1601Bp, A-1602B, A-1603Bf, A-1603Bv, A-1603Z, A-1605R, A-1606Z, A-1608D, A-1608DP, A-1609Bf, A-1609Bv, A-1609Z, A-1611D, A-1614GT, A-1617D, A-1618B, A-1619D, A-1619I, A-1620V, A-1622D, A-1623A, A-1624M, A-1624S, A-1624T, A-1625U, A-1628U, A-1632D, A-1634R
!!@@BEGIN:	VERSES
!!@ABOUTIT:	  TIRSI
!!@ABOUTEN:	
!!@EDITOR:	Solerti, Angelo
!!@EDITION_TITLE: Opere minori in versi di Torquato Tasso. Edizione critica sugli autografi e sulle antiche stampe.
!!@EDITION_LOC:	Bologna
!!@EDITION_PUB:	Zanichelli
!!@EDITION_DATE:  1895
!!@EDITION_VOL:	3
!!@EDITION_PAGE:
!!@TRANSLATOR:	Emiliano Ricciardi and Amyrose McCue Gill
!!@VERSE:	
!!	TIRSI: Nove, Aminta, t'annuncio di conforto:
!!	Lascia homai questo tanto lamentarti.
!!	AMINTA: Ohimè, che di'? che porti?
!!	0 la vita o la morte?
!!	TIRSI: Porto salute e vita, s'ardirai
!!	Di farti loro incontra: ma fa luogo
!!	D'esser un huomo, Aminta, e un huomo ardito.
!!@TVERSE:
!!	THYRSIS:News, Aminta, I announce to you of comfort:
!!	Abandon already this great lamentation.
!!	AMINTA: Oh dear, what are you saying? What are you bringing?
!!	Either life or death?
!!	THYRSIS: I bring health and life, if you will dare
!!	To make yourself face them: but make a place
!!	To be a man, Aminta, and a daring man.
!!@@END:		VERSES
!!@NEW_CRIT_ED:   Torquato Tasso, <i>Aminta. "Princeps."</i>, ed. Matteo Navone, vol. 9 of Commissione Nazionale per l'Edizione delle opere del Tasso. Studi e Testi (Alessandria: Edizioni dell'Orso, 2014).
!!@ATTRIBUTION_ABOUT:	
!!@DATING:	1573
!!@DEDICATEE:	
!!@COMMENTARY:
!!@@END:		VERSEDATA
!!@@BEGIN: SETTING
!!@CATALOGNUM:	Tam2031045a
!!@ACT:		II
!!@SCENE:		3
!!@VERSE:		1045
!!@TITLE:		Nove, Aminta, t'annuncio di conforto
!!@COMPOSER:	Balsamino, Simone
!!@PRINCEPSTITLE:	Novellette a sei voci
!!@PRINCEPSLOC:	Venice
!!@NORMLOC:	Venice
!!@NORMPUB:	Amadino
!!@NORMPUBSHORT:	Amadino
!!@PRINCEPSPUB:	Amadino
!!@PRINCEPSYEAR:	1594
!!@PRINCEPSRISM:	B 785
!!@OVOICES:	6
!!@EXTANTVOICES:	6
!!@OMENSURATION:	C
!!@OCLEFS:	C1,C1,C3,C4,C4,F4
!!@OTIME:		
!!@OKEYSIG:	b-
!!@FINAL:		(C)F
!!@TIMPEDITOR:	Coluzzi, Seth
!!@PARTS:		1 of 1
!!@REPRINTS:	
!!@@END: SETTING
